brandFactory_export/1.Light/Servicio tecnico_1Light.svg

<?xml version="1.0" encoding="UTF-8"?>
<svg width="24px" height="24px" viewBox="0 0 24 24" version="1.1" xmlns="http://www.w3.org/2000/svg" xmlns:xlink="http://www.w3.org/1999/xlink">
    <title>1.Light/Servicio tecnico_1Light</title>
    <g id="Symbols" stroke="none" stroke-width="1" fill="none" fill-rule="evenodd">
        <g id="1.Light/Servicio-tecnico_1Light" fill="#5CB615" fill-rule="nonzero">
            <path d="M19.4285714,0.722689076 C19.6739496,0.722689076 19.7310924,0.867226891 19.5596639,1.03865546 L18.6789916,1.91932773 C18.507563,2.0907563 18.3932773,2.4302521 18.4268908,2.67226891 L18.6084034,3.93613445 C18.6420168,4.17815126 18.8705882,4.40336134 19.112605,4.44033613 L20.3764706,4.62184874 C20.4067227,4.62521008 20.4369748,4.62857143 20.4672269,4.62857143 C20.6957983,4.62857143 20.9781513,4.52436975 21.1294118,4.3697479 L22.010084,3.48907563 C22.0773109,3.42184874 22.1378151,3.38823529 22.1915966,3.38823529 C22.2722689,3.38823529 22.3260519,3.46890756 22.3260519,3.61680672 C22.3260519,3.61680672 22.3327731,5.61344538 21.4285714,6.51764706 C20.5378151,7.40840336 18.594958,7.41512605 18.5277311,7.41512605 L18.5243697,7.41512605 C18.2789916,7.41512605 17.9394958,7.55630252 17.7680672,7.72773109 L7.69747899,17.8016807 C7.52605042,17.9731092 7.38487395,18.3159664 7.38487395,18.5613445 C7.38487395,18.5613445 7.39159664,20.5579832 6.48739496,21.4621849 C5.59663866,22.3529412 3.65378151,22.3596639 3.58655462,22.3596639 L3.58319328,22.3596639 C3.33781513,22.3596639 3.28067227,22.2151261 3.45210084,22.0436975 L4.33613445,21.1630252 C4.50756303,20.9915966 4.62184874,20.6521008 4.58823529,20.410084 L4.40672269,19.1462185 C4.37310924,18.9042017 4.14453782,18.6789916 3.90588235,18.6420168 L2.64201681,18.4605042 C2.61176471,18.4571429 2.58151261,18.4537815 2.5512605,18.4537815 C2.32268908,18.4537815 2.04033613,18.5579832 1.88907563,18.712605 L1.00504202,19.5966387 C0.937815126,19.6638655 0.877310924,19.697479 0.823529412,19.697479 C0.742857143,19.697479 0.689074187,19.6168067 0.689074187,19.4689076 C0.689074187,19.4689076 0.682352941,17.4722689 1.58655462,16.5647059 C2.47731092,15.6705882 4.42016807,15.6638655 4.48739496,15.6638655 L4.4907563,15.6638655 C4.73613445,15.6638655 5.07563025,15.5226891 5.24705882,15.3512605 L15.3176471,5.28403361 C15.4890756,5.1092437 15.6302521,4.7697479 15.6302521,4.52436975 C15.6302521,4.52436975 15.6235294,2.52773109 16.5277311,1.62352941 C17.4218487,0.729411765 19.3647059,0.722689076 19.4285714,0.722689076 M19.4285714,0.0302521008 C19.0016807,0.0369747899 18.5781513,0.0806722689 18.1613445,0.157983193 C17.2235294,0.332773109 16.5109244,0.662184874 16.0403361,1.13277311 C15.5630252,1.61008403 15.2336134,2.33613445 15.0588235,3.2907563 C14.9848739,3.70084034 14.9445378,4.11428571 14.9378151,4.52773109 C14.9243697,4.62521008 14.8840336,4.71596639 14.8268908,4.79327731 L4.75966387,14.8605042 C4.68235294,14.9176471 4.58823529,14.9546218 4.49411765,14.9714286 L4.4907563,14.9714286 C4.06386555,14.9781513 3.64033613,15.0218487 3.22352941,15.0991597 C2.28571429,15.2739496 1.57310924,15.6033613 1.10252101,16.0739496 C0.625210084,16.5512605 0.295798319,17.2773109 0.121008403,18.2319328 C0.0470588235,18.6420168 0.00672268908,19.0554622 0,19.4689076 C0.00336134454,20.0739496 0.416806723,20.389916 0.826890756,20.389916 C0.994957983,20.389916 1.24705882,20.3361345 1.49915966,20.087395 L2.37647059,19.210084 C2.4302521,19.1764706 2.48739496,19.1563025 2.5512605,19.1529412 L3.73445378,19.3210084 L3.90252101,20.507563 C3.89915966,20.5680672 3.8789916,20.6285714 3.84537815,20.6823529 L2.96806723,21.5596639 C2.68235294,21.8453782 2.59159664,22.2117647 2.72605042,22.5344538 C2.8605042,22.8571429 3.18319328,23.0554622 3.58655462,23.0554622 L3.58991597,23.0554622 C4.01680672,23.0487395 4.44033613,23.005042 4.85714286,22.9277311 C5.79495798,22.7529412 6.50756303,22.4235294 6.97815126,21.9529412 C7.45546218,21.4756303 7.78487395,20.7495798 7.95966387,19.794958 C8.03361345,19.3848739 8.07394958,18.9714286 8.08067227,18.5579832 C8.09411765,18.4605042 8.13445378,18.3697479 8.19159664,18.292437 L18.2588235,8.22521008 C18.3361345,8.16806723 18.4302521,8.13109244 18.5243697,8.11428571 L18.5277311,8.11428571 C18.9546218,8.10756303 19.3781513,8.06386555 19.794958,7.98655462 C20.7327731,7.81176471 21.4453782,7.48235294 21.9159664,7.01176471 C22.3932773,6.53445378 22.7226891,5.80840336 22.897479,4.85378151 C22.9714286,4.44369748 23.0117647,4.0302521 23.0184874,3.61680672 C23.0151261,3.01176471 22.6016807,2.69579832 22.1915966,2.69579832 C22.0235294,2.69579832 21.7714286,2.74957983 21.5193277,2.99831933 L20.6420168,3.87563025 C20.5915966,3.9092437 20.5310924,3.92605042 20.4705882,3.93277311 L19.287395,3.76470588 L19.1193277,2.58151261 C19.1226891,2.5210084 19.1428571,2.4605042 19.1764706,2.40672269 L20.0537815,1.52941176 C20.3394958,1.24369748 20.4302521,0.877310924 20.2957983,0.554621849 C20.1613445,0.231932773 19.8386555,0.0302521008 19.4352941,0.0302521008 L19.4285714,0.0302521008 Z" id="Servicio-tecnico_1Light"></path>
        </g>
    </g>
</svg>

<svg width="24" height="24" viewBox="0 0 24 24" xmlns="http://www.w3.org/2000/svg"><path d="M19.429.723c.245 0 .302.144.13.316l-.88.88a1.01 1.01 0 00-.252.753l.181 1.264a.635.635 0 00.505.504l1.263.182c.03.003.061.007.091.007.229 0 .511-.105.662-.26l.881-.88c.067-.067.128-.1.182-.1.08 0 .134.08.134.228 0 0 .007 1.996-.897 2.9-.891.891-2.834.898-2.901.898h-.004a1.23 1.23 0 00-.756.313L7.698 17.802a1.24 1.24 0 00-.313.76s.007 1.996-.898 2.9c-.89.89-2.833.898-2.9.898h-.004c-.245 0-.302-.145-.13-.316l.883-.881a1.01 1.01 0 00.252-.753l-.181-1.264a.635.635 0 00-.501-.504l-1.264-.181c-.03-.004-.06-.007-.09-.007-.23 0-.512.104-.663.259l-.884.884c-.067.067-.128.1-.181.1-.081 0-.135-.08-.135-.228 0 0-.007-1.997.898-2.904.89-.894 2.833-.901 2.9-.901h.004c.245 0 .585-.141.756-.313l10.07-10.067c.172-.175.313-.514.313-.76 0 0-.006-1.996.898-2.9.894-.895 2.837-.901 2.9-.901m0-.693c-.426.007-.85.05-1.267.128-.937.175-1.65.504-2.12.975-.478.477-.807 1.203-.982 2.158-.074.41-.114.823-.121 1.237a.583.583 0 01-.111.265L4.76 14.861a.64.64 0 01-.266.11h-.003c-.427.007-.85.05-1.267.128-.938.175-1.65.504-2.121.975-.478.477-.807 1.203-.982 2.158-.074.41-.114.823-.121 1.237.003.605.417.92.827.92.168 0 .42-.053.672-.302l.877-.877a.36.36 0 01.175-.057l1.183.168.169 1.187a.371.371 0 01-.058.174l-.877.878c-.286.285-.376.652-.242.974.135.323.457.521.86.521h.004c.427-.006.85-.05 1.267-.127.938-.175 1.65-.504 2.121-.975.477-.477.807-1.203.982-2.158.074-.41.114-.824.12-1.237a.583.583 0 01.112-.266L18.259 8.225a.64.64 0 01.265-.11h.004c.427-.007.85-.051 1.267-.128.938-.175 1.65-.505 2.121-.975.477-.478.807-1.204.981-2.158.074-.41.115-.824.121-1.237-.003-.605-.416-.921-.826-.921-.168 0-.42.054-.673.302l-.877.878a.385.385 0 01-.171.057l-1.184-.168-.168-1.183a.371.371 0 01.057-.175l.878-.878c.285-.285.376-.652.242-.974-.135-.323-.457-.525-.86-.525h-.007z" fill="#5CB615" fill-rule="nonzero"/></svg>
